X:1
T:I DON'T MIND IF YOU FORGET ME
C:Stephen Street
Z:All Rights Reserved
L:1/8
Q:1/4=120
M:4/4
K:A
V:1 treble nm="MusicXML Part"
%%MIDI program 0
V:1
|:"A" z4"E" e2 cA- |"F#m" AF-"D" F6 |"A" cc c2"E" dcBc- |"F#m" c<A-"D" A4 AB | %4
w: I DON'T MIND|_ _ _|I DON'T MIND IF YOU FOR GET|_ ME _ hav ing|
w: ||||
w: ||||
"A" B-c c2"E6" cB-BB |"F#m" cd"D" c4 cc |"A" ec c2"E" ec-cA- |"F#m" AF-"D" F6 |"E" z BBB BB-BA | %9
w: learned _ my les son _ I|nev er left an im|press ion on an y _ one|_ _ _|so now you send _ me your|
w: ||||the press ure to change _ _|
w: ||||you can on ly _ _ be|
"F#m" cAAA- A2 A2 |"D" dczd z c-cc- |"A" cB- A4 c2 |"C#m" cB-BA- AG-GA |"F#m" Az/F/- F4 z c | %14
w: high est re gards _ when|once you'd send me love _|_ _ _ Sin|cere ly _ I _ must _ tell|_ you _ your|
w: to move _ on _ was|strange _ ve ry STRONG _|_ _ _ so|this is _ why _ I _ tell|_ you _ I|
w: strong for so long it won't|eat you it will beat you|_ _ _ so|this is _ why _ I _ tell|_ you _ I|
"C#m" c2 c2 cBzB |"D" AA-AA c>c- [Ac]2 :|"A" dczc"E" dc- cc/c/ |"F#m" dccc"D" d2 ce | %18
w: mild best wish es they|make me _ sus pic ious! _|JEC TION IS one thing _ but re|ject ion from a fool is cruel|
w: real ly do _ UN|DER STAND : _ BYE BYE _|_ _||
w: real lly don't _ un|der stand _ _ THIS TIME RE|||
"A" e4"E" z2 z2 | z2 z2 z2 d2 |] %20
w: _|RE|
w: ||
w: ||

